dist/assets/images/svg-sprites.svg

<?xml version="1.0" encoding="utf-8"?>
<svg xmlns="http://www.w3.org/2000/svg">
  <defs>
    <symbol id='square'  viewBox="0 0 30 30" >
        <rect width="30" height="30" fill="currentColor"/>
    </symbol>
    <symbol id='round' viewBox="0 0 32 32" >
        <rect width="32" height="32" rx="16" fill="currentColor"/>
    </symbol>
    <symbol id='triangle' viewBox="0 0 30 30" >
        <path d="M0 0L32 32H0V0Z" fill="currentColor"/>
    </symbol>
    <symbol id='close' viewBox="0 0 24 24"  >
                          <path
                    fill-rule="evenodd"
                    clip-rule="evenodd"
                    d="M18.7071 5.29289C19.0976 5.68342 19.0976 6.31658 18.7071 6.70711L6.70711 18.7071C6.31658 19.0976 5.68342 19.0976 5.29289 18.7071C4.90237 18.3166 4.90237 17.6834 5.29289 17.2929L17.2929 5.29289C17.6834 4.90237 18.3166 4.90237 18.7071 5.29289Z"
                    fill="currentColor"
                  />
                  <path
                    fill-rule="evenodd"
                    clip-rule="evenodd"
                    d="M5.29289 5.29289C5.68342 4.90237 6.31658 4.90237 6.70711 5.29289L18.7071 17.2929C19.0976 17.6834 19.0976 18.3166 18.7071 18.7071C18.3166 19.0976 17.6834 19.0976 17.2929 18.7071L5.29289 6.70711C4.90237 6.31658 4.90237 5.68342 5.29289 5.29289Z"
                    fill="currentColor"
                  />
    </symbol>
    <symbol id='downArrow' viewBox="0 0 26 26" >
        <path fill-rule="evenodd" clip-rule="evenodd" d="M4.29289 8.29289C4.68342 7.90237 5.31658 7.90237 5.70711 8.29289L13 15.5858L20.2929 8.29289C20.6834 7.90237 21.3166 7.90237 21.7071 8.29289C22.0976 8.68342 22.0976 9.31658 21.7071 9.70711L13.7071 17.7071C13.3166 18.0976 12.6834 18.0976 12.2929 17.7071L4.29289 9.70711C3.90237 9.31658 3.90237 8.68342 4.29289 8.29289Z" fill="currentColor"/>
    </symbol>
    <symbol id='burger' viewBox="0 0 24 24" >
        <path fill-rule="evenodd" clip-rule="evenodd" d="M2 12C2 11.4477 2.44772 11 3 11H21C21.5523 11 22 11.4477 22 12C22 12.5523 21.5523 13 21 13H3C2.44772 13 2 12.5523 2 12Z" fill="currentColor"/>
        <path fill-rule="evenodd" clip-rule="evenodd" d="M2 6C2 5.44772 2.44772 5 3 5H21C21.5523 5 22 5.44772 22 6C22 6.55228 21.5523 7 21 7H3C2.44772 7 2 6.55228 2 6Z" fill="currentColor"/>
        <path fill-rule="evenodd" clip-rule="evenodd" d="M2 18C2 17.4477 2.44772 17 3 17H21C21.5523 17 22 17.4477 22 18C22 18.5523 21.5523 19 21 19H3C2.44772 19 2 18.5523 2 18Z" fill="currentColor"/>
    </symbol>
    <symbol id='success' viewBox="0 0 24 24" >
        <path fill-rule="evenodd" clip-rule="evenodd" d="M15.663 3.77342C13.8902 2.98352 11.9096 2.78783 10.0166 3.21555C8.12351 3.64326 6.41942 4.67145 5.15845 6.14678C3.89749 7.62211 3.14721 9.46552 3.01951 11.4021C2.89181 13.3387 3.39354 15.2646 4.44987 16.8928C5.50619 18.5209 7.06051 19.764 8.88102 20.4365C10.7015 21.1091 12.6907 21.1752 14.5518 20.6249C16.413 20.0746 18.0464 18.9375 19.2084 17.3831C20.3705 15.8286 20.9989 13.9402 21 11.9994V11.08C21 10.5277 21.4477 10.08 22 10.08C22.5523 10.08 23 10.5277 23 11.08V12C22.9986 14.3721 22.2306 16.6807 20.8103 18.5806C19.39 20.4804 17.3936 21.8703 15.1189 22.5428C12.8442 23.2154 10.413 23.1346 8.18792 22.3126C5.96285 21.4906 4.06312 19.9713 2.77206 17.9813C1.48099 15.9914 0.86777 13.6374 1.02384 11.2705C1.17992 8.90358 2.09693 6.65052 3.63811 4.84734C5.17929 3.04416 7.26206 1.78748 9.57581 1.26472C11.8896 0.74196 14.3103 0.981129 16.477 1.94656C16.9815 2.17134 17.2082 2.76252 16.9834 3.26699C16.7587 3.77146 16.1675 3.9982 15.663 3.77342Z" fill="currentColor"/>
        <path fill-rule="evenodd" clip-rule="evenodd" d="M22.7068 3.29254C23.0975 3.68287 23.0978 4.31603 22.7075 4.70675L12.7075 14.7168C12.52 14.9044 12.2656 15.0099 12.0002 15.01C11.7349 15.0101 11.4805 14.9047 11.2929 14.7171L8.29289 11.7171C7.90237 11.3266 7.90237 10.6934 8.29289 10.3029C8.68342 9.91237 9.31658 9.91237 9.70711 10.3029L11.9996 12.5954L21.2925 3.29325C21.6829 2.90253 22.316 2.90221 22.7068 3.29254Z" fill="currentColor"/>
    </symbol>
    <symbol id='error' viewBox="0 0 24 24" >
        <path fill-rule="evenodd" clip-rule="evenodd" d="M10.5282 2.28306C10.9775 2.0301 11.4844 1.89722 12 1.89722C12.5156 1.89722 13.0225 2.0301 13.4718 2.28306C13.9211 2.53601 14.2976 2.90049 14.565 3.34133L14.5679 3.34608L23.0379 17.4861L23.046 17.4999C23.308 17.9535 23.4466 18.4678 23.448 18.9917C23.4495 19.5155 23.3138 20.0306 23.0544 20.4857C22.795 20.9408 22.4209 21.32 21.9694 21.5857C21.518 21.8513 21.0048 21.9941 20.481 21.9999L20.47 22L3.51903 22C2.99522 21.9942 2.48206 21.8513 2.03059 21.5857C1.57912 21.32 1.20507 20.9408 0.94567 20.4857C0.686267 20.0306 0.550547 19.5155 0.552014 18.9917C0.55348 18.4678 0.692083 17.9535 0.95403 17.4999L0.962153 17.4861L9.43215 3.34609L10.29 3.85995L9.43502 3.34133C9.70243 2.90049 10.0789 2.53601 10.5282 2.28306ZM11.1462 4.3766L2.68271 18.5058C2.59753 18.6556 2.55249 18.8249 2.55201 18.9973C2.55152 19.1719 2.59676 19.3436 2.68322 19.4953C2.76969 19.647 2.89438 19.7734 3.04487 19.8619C3.19404 19.9497 3.36342 19.9973 3.53642 20H20.4636C20.6366 19.9973 20.806 19.9497 20.9552 19.8619C21.1057 19.7734 21.2303 19.647 21.3168 19.4953C21.4033 19.3436 21.4485 19.1719 21.448 18.9973C21.4476 18.8249 21.4025 18.6556 21.3174 18.5058L12.855 4.37859C12.8546 4.37792 12.8542 4.37726 12.8538 4.3766C12.7648 4.23054 12.6397 4.10977 12.4906 4.02583C12.3409 3.94151 12.1719 3.89722 12 3.89722C11.8282 3.89722 11.6592 3.94151 11.5094 4.02583C11.3603 4.10977 11.2353 4.23054 11.1462 4.3766Z" fill="currentColor"/>
        <path fill-rule="evenodd" clip-rule="evenodd" d="M12 8C12.5523 8 13 8.44772 13 9V13C13 13.5523 12.5523 14 12 14C11.4477 14 11 13.5523 11 13V9C11 8.44772 11.4477 8 12 8Z" fill="currentColor"/>
        <path fill-rule="evenodd" clip-rule="evenodd" d="M12 15C12.5523 15 13 15.4477 13 16V16.5C13 17.0523 12.5523 17.5 12 17.5C11.4477 17.5 11 17.0523 11 16.5V16C11 15.4477 11.4477 15 12 15Z" fill="currentColor"/>
    </symbol>
    <symbol id='question' viewBox="0 0 24 24" >
       <path fill-rule="evenodd" clip-rule="evenodd" d="M12 3C7.02944 3 3 7.02944 3 12C3 16.9706 7.02944 21 12 21C16.9706 21 21 16.9706 21 12C21 7.02944 16.9706 3 12 3ZM1 12C1 5.92487 5.92487 1 12 1C18.0751 1 23 5.92487 23 12C23 18.0751 18.0751 23 12 23C5.92487 23 1 18.0751 1 12Z" fill="currentColor"/>
        <path fill-rule="evenodd" clip-rule="evenodd" d="M12.2582 8.02428C11.7927 7.94443 11.314 8.03191 10.9068 8.27123C10.4996 8.51054 10.1902 8.88625 10.0335 9.3318C9.85018 9.85279 9.27926 10.1266 8.75827 9.9433C8.23728 9.76002 7.96351 9.18911 8.14678 8.66812C8.46025 7.77701 9.07898 7.02559 9.89339 6.54696C10.7078 6.06833 11.6653 5.89337 12.5964 6.05307C13.5274 6.21277 14.3719 6.69682 14.9802 7.41949C15.5884 8.14201 15.9214 9.05644 15.9201 10.0009C15.9197 11.5312 14.7851 12.5419 13.9748 13.082C13.5392 13.3724 13.1107 13.586 12.795 13.7263C12.6358 13.7971 12.5016 13.8508 12.405 13.8876C12.3566 13.906 12.3174 13.9203 12.2888 13.9305L12.2541 13.9426L12.243 13.9464L12.2391 13.9477L12.2376 13.9482C12.2373 13.9483 12.2363 13.9486 11.9201 13L12.2363 13.9486C11.7124 14.1233 11.1461 13.8401 10.9714 13.3162C10.7969 12.7926 11.0796 12.2267 11.6028 12.0516L11.6016 12.0521C11.6017 12.052 11.6018 12.052 11.6028 12.0516L11.6188 12.046C11.6342 12.0406 11.6594 12.0314 11.693 12.0186C11.7605 11.9929 11.8607 11.9529 11.9827 11.8986C12.2296 11.7889 12.551 11.6275 12.8654 11.4179C13.555 10.9582 13.9201 10.4691 13.9201 9.99996L13.9201 9.99847C13.9208 9.52615 13.7543 9.06883 13.4502 8.70749C13.146 8.34615 12.7238 8.10413 12.2582 8.02428Z" fill="currentColor"/>
        <path fill-rule="evenodd" clip-rule="evenodd" d="M12 15C12.5523 15 13 15.4477 13 16V16.5C13 17.0523 12.5523 17.5 12 17.5C11.4477 17.5 11 17.0523 11 16.5V16C11 15.4477 11.4477 15 12 15Z" fill="currentColor"/>
    </symbol>
    <symbol id="sun" viewBox="0 0 24 24" >
        <g clip-path="url(#clip0_16769_229)">
            <path d="M12 17C14.7614 17 17 14.7614 17 12C17 9.23858 14.7614 7 12 7C9.23858 7 7 9.23858 7 12C7 14.7614 9.23858 17 12 17Z" stroke="currentColor" stroke-width="2" stroke-linecap="round" stroke-linejoin="round"/>
            <path d="M12 1V3" stroke="currentColor" stroke-width="2" stroke-linecap="round" stroke-linejoin="round"/>
            <path d="M12 21V23" stroke="currentColor" stroke-width="2" stroke-linecap="round" stroke-linejoin="round"/>
            <path d="M4.22021 4.21997L5.64021 5.63997" stroke="currentColor" stroke-width="2" stroke-linecap="round" stroke-linejoin="round"/>
            <path d="M18.3599 18.36L19.7799 19.78" stroke="currentColor" stroke-width="2" stroke-linecap="round" stroke-linejoin="round"/>
            <path d="M1 12H3" stroke="currentColor" stroke-width="2" stroke-linecap="round" stroke-linejoin="round"/>
            <path d="M21 12H23" stroke="currentColor" stroke-width="2" stroke-linecap="round" stroke-linejoin="round"/>
            <path d="M4.22021 19.78L5.64021 18.36" stroke="currentColor" stroke-width="2" stroke-linecap="round" stroke-linejoin="round"/>
            <path d="M18.3599 5.63997L19.7799 4.21997" stroke="currentColor" stroke-width="2" stroke-linecap="round" stroke-linejoin="round"/>
        </g>
    </symbol>
    <symbol id="moon" viewBox="0 0 20 20" >
        <path d="M18.9999 10.79C18.8426 12.4922 18.2038 14.1144 17.1581 15.4668C16.1125 16.8192 14.7034 17.8458 13.0956 18.4265C11.4878 19.0073 9.74789 19.1181 8.0794 18.7461C6.41092 18.3741 4.8829 17.5345 3.67413 16.3258C2.46536 15.117 1.62584 13.589 1.25381 11.9205C0.881777 10.252 0.992617 8.51208 1.57336 6.9043C2.15411 5.29651 3.18073 3.88737 4.53311 2.84175C5.8855 1.79614 7.5077 1.15731 9.2099 1C8.21331 2.34827 7.73375 4.00945 7.85843 5.68141C7.98312 7.35338 8.70376 8.92506 9.8893 10.1106C11.0748 11.2961 12.6465 12.0168 14.3185 12.1415C15.9905 12.2662 17.6516 11.7866 18.9999 10.79V10.79Z" stroke="currentColor" stroke-width="2" stroke-linecap="round" stroke-linejoin="round"/>
    </symbol>
    <symbol id="tooltip" viewBox="0 0 24 24">
                         <path
                        fill-rule="evenodd"
                        clip-rule="evenodd"
                        d="M12 3C7.02944 3 3 7.02944 3 12C3 16.9706 7.02944 21 12 21C16.9706 21 21 16.9706 21 12C21 7.02944 16.9706 3 12 3ZM1 12C1 5.92487 5.92487 1 12 1C18.0751 1 23 5.92487 23 12C23 18.0751 18.0751 23 12 23C5.92487 23 1 18.0751 1 12Z"
                        fill="currentColor"
                      />
                      <path
                        fill-rule="evenodd"
                        clip-rule="evenodd"
                        d="M12.2581 8.02432C11.7926 7.94447 11.3138 8.03195 10.9066 8.27126C10.4994 8.51058 10.1901 8.88629 10.0333 9.33184C9.85006 9.85283 9.27914 10.1266 8.75815 9.94333C8.23716 9.76006 7.96339 9.18915 8.14666 8.66816C8.46013 7.77705 9.07886 7.02563 9.89327 6.547C10.7077 6.06837 11.6652 5.89341 12.5962 6.05311C13.5273 6.2128 14.3717 6.69686 14.9801 7.41953C15.5883 8.14205 15.9213 9.05648 15.92 10.0009C15.9195 11.5313 14.7849 12.5419 13.9747 13.082C13.5391 13.3725 13.1105 13.586 12.7949 13.7263C12.6356 13.7971 12.5015 13.8508 12.4049 13.8876C12.3565 13.906 12.3173 13.9203 12.2887 13.9305L12.254 13.9427L12.2429 13.9464L12.239 13.9478L12.2375 13.9483C12.2372 13.9484 12.2362 13.9487 11.92 13L12.2362 13.9487C11.7123 14.1233 11.146 13.8402 10.9713 13.3162C10.7968 12.7926 11.0794 12.2267 11.6027 12.0517L11.6014 12.0521C11.6015 12.0521 11.6016 12.052 11.6027 12.0517L11.6187 12.0461C11.6341 12.0406 11.6593 12.0314 11.6929 12.0186C11.7603 11.9929 11.8606 11.9529 11.9826 11.8987C12.2294 11.789 12.5509 11.6275 12.8653 11.4179C13.5549 10.9582 13.92 10.4691 13.92 10L13.92 9.99851C13.9207 9.52619 13.7542 9.06886 13.45 8.70753C13.1459 8.34619 12.7236 8.10417 12.2581 8.02432Z"
                        fill="currentColor"
                      />
                      <path
                        fill-rule="evenodd"
                        clip-rule="evenodd"
                        d="M12 15C12.5523 15 13 15.4477 13 16V16.5C13 17.0523 12.5523 17.5 12 17.5C11.4477 17.5 11 17.0523 11 16.5V16C11 15.4477 11.4477 15 12 15Z"
                         fill="currentColor"
                      />
    </symbol>
  </defs>
</svg>

<svg xmlns="http://www.w3.org/2000/svg"><defs><symbol id="square" viewBox="0 0 30 30"><path fill="currentColor" d="M0 0h30v30H0z"/></symbol><symbol id="round" viewBox="0 0 32 32"><rect width="32" height="32" rx="16" fill="currentColor"/></symbol><symbol id="triangle" viewBox="0 0 30 30"><path d="m0 0 32 32H0V0Z" fill="currentColor"/></symbol><symbol id="close" viewBox="0 0 24 24"><path fill-rule="evenodd" clip-rule="evenodd" d="M18.707 5.293a1 1 0 0 1 0 1.414l-12 12a1 1 0 0 1-1.414-1.414l12-12a1 1 0 0 1 1.414 0Z" fill="currentColor"/><path fill-rule="evenodd" clip-rule="evenodd" d="M5.293 5.293a1 1 0 0 1 1.414 0l12 12a1 1 0 0 1-1.414 1.414l-12-12a1 1 0 0 1 0-1.414Z" fill="currentColor"/></symbol><symbol id="downArrow" viewBox="0 0 26 26"><path fill-rule="evenodd" clip-rule="evenodd" d="M4.293 8.293a1 1 0 0 1 1.414 0L13 15.586l7.293-7.293a1 1 0 1 1 1.414 1.414l-8 8a1 1 0 0 1-1.414 0l-8-8a1 1 0 0 1 0-1.414Z" fill="currentColor"/></symbol><symbol id="burger" viewBox="0 0 24 24"><path fill-rule="evenodd" clip-rule="evenodd" d="M2 12a1 1 0 0 1 1-1h18a1 1 0 1 1 0 2H3a1 1 0 0 1-1-1Zm0-6a1 1 0 0 1 1-1h18a1 1 0 1 1 0 2H3a1 1 0 0 1-1-1Zm0 12a1 1 0 0 1 1-1h18a1 1 0 1 1 0 2H3a1 1 0 0 1-1-1Z" fill="currentColor"/></symbol><symbol id="success" viewBox="0 0 24 24"><path fill-rule="evenodd" clip-rule="evenodd" d="M15.663 3.773A9 9 0 1 0 21 12v-.919a1 1 0 1 1 2 0V12A11.002 11.002 0 0 1 8.188 22.313a11 11 0 1 1 8.289-20.366 1 1 0 1 1-.814 1.826Z" fill="currentColor"/><path fill-rule="evenodd" clip-rule="evenodd" d="M22.707 3.293a1 1 0 0 1 0 1.414l-10 10.01a1 1 0 0 1-1.414 0l-3-3a1 1 0 1 1 1.414-1.414L12 12.595l9.293-9.302a1 1 0 0 1 1.414 0Z" fill="currentColor"/></symbol><symbol id="error" viewBox="0 0 24 24"><path fill-rule="evenodd" clip-rule="evenodd" d="M10.528 2.283a3 3 0 0 1 4.037 1.058l.003.005 8.47 14.14.008.014a2.999 2.999 0 0 1-2.565 4.5H3.519a3.001 3.001 0 0 1-2.565-4.5l.008-.014 8.47-14.14.858.514-.855-.519a3 3 0 0 1 1.093-1.058Zm.618 2.094L2.683 18.506A1 1 0 0 0 3.536 20h16.928a1 1 0 0 0 .853-1.494L12.855 4.379l-.001-.002a1 1 0 0 0-1.708 0Z" fill="currentColor"/><path fill-rule="evenodd" clip-rule="evenodd" d="M12 8a1 1 0 0 1 1 1v4a1 1 0 1 1-2 0V9a1 1 0 0 1 1-1Zm0 7a1 1 0 0 1 1 1v.5a1 1 0 1 1-2 0V16a1 1 0 0 1 1-1Z" fill="currentColor"/></symbol><symbol id="question" viewBox="0 0 24 24"><path fill-rule="evenodd" clip-rule="evenodd" d="M12 3a9 9 0 1 0 0 18 9 9 0 0 0 0-18ZM1 12C1 5.925 5.925 1 12 1s11 4.925 11 11-4.925 11-11 11S1 18.075 1 12Z" fill="currentColor"/><path fill-rule="evenodd" clip-rule="evenodd" d="M12.258 8.024a2 2 0 0 0-2.224 1.308 1 1 0 0 1-1.887-.664 4 4 0 0 1 7.773 1.333c0 1.53-1.135 2.54-1.945 3.081a8.045 8.045 0 0 1-1.686.848l-.035.013-.011.003-.004.002h-.001s-.002 0-.318-.948l.316.949a1 1 0 0 1-.633-1.897h-.001l.017-.006a5.763 5.763 0 0 0 .364-.147c.247-.11.568-.272.882-.481.69-.46 1.055-.949 1.055-1.418v-.002a2 2 0 0 0-1.662-1.974ZM12 15a1 1 0 0 1 1 1v.5a1 1 0 1 1-2 0V16a1 1 0 0 1 1-1Z" fill="currentColor"/></symbol><symbol id="sun" viewBox="0 0 24 24"><g clip-path="url(#clip0_16769_229)" stroke="currentColor" stroke-width="2" stroke-linecap="round" stroke-linejoin="round"><path d="M12 17a5 5 0 1 0 0-10 5 5 0 0 0 0 10Zm0-16v2m0 18v2M4.22 4.22l1.42 1.42m12.72 12.72 1.42 1.42M1 12h2m18 0h2M4.22 19.78l1.42-1.42M18.36 5.64l1.42-1.42"/></g></symbol><symbol id="moon" viewBox="0 0 20 20"><path d="M19 10.79A9 9 0 1 1 9.21 1 7 7 0 0 0 19 10.79v0Z" stroke="currentColor" stroke-width="2" stroke-linecap="round" stroke-linejoin="round"/></symbol><symbol id="tooltip" viewBox="0 0 24 24"><path fill-rule="evenodd" clip-rule="evenodd" d="M12 3a9 9 0 1 0 0 18 9 9 0 0 0 0-18ZM1 12C1 5.925 5.925 1 12 1s11 4.925 11 11-4.925 11-11 11S1 18.075 1 12Z" fill="currentColor"/><path fill-rule="evenodd" clip-rule="evenodd" d="M12.258 8.024a2 2 0 0 0-2.225 1.308 1 1 0 1 1-1.886-.664 4 4 0 0 1 7.773 1.333c0 1.53-1.135 2.54-1.945 3.081a8.041 8.041 0 0 1-1.686.848l-.035.013-.011.003-.004.002h-.002L11.92 13l.316.949a1 1 0 0 1-.633-1.897H11.6h.002l.016-.006.074-.027a6.051 6.051 0 0 0 1.172-.6c.69-.46 1.055-.95 1.055-1.419v-.001a2 2 0 0 0-1.662-1.975ZM12 15a1 1 0 0 1 1 1v.5a1 1 0 1 1-2 0V16a1 1 0 0 1 1-1Z" fill="currentColor"/></symbol></defs></svg>
